rospo-newyear-dark/symbolic/apps/builder-symbolic.svg

<svg height="16" width="16" xmlns="http://www.w3.org/2000/svg"><path d="m10 0c-1.062 0-1.9163.81922-1.9863 1.8691l-2.2461 2.2403c-.247-.06-.4996-.1094-.7676-.1094-1.662 0-3 1.34-3 3 0 .89.39 1.6807 1 2.2207v3.7793h4v-3.7793c.61-.54 1-1.3307 1-2.2207 0-.27-.0463-.5195-.1113-.7695l2.2463-2.2403c.129-.01.254-.0303.375-.0703l.928.9297-.292.291c-.094.1-.146.2194-.146.3594v2c0 .27.224.5.5.5h2c .676 0 .676-1 0-1h-1.5v-1.2891l1.707-1.7109h1.293v1.5c0 .674 1 .6701 1 0v-2c0-.28-.224-.5-.5-.5h-2c-.133 0-.261.0506-.354.1406l-.294.2989-.926-.9297c.043-.16.074-.3298.074-.5098 0-1.11-.892-2-2-2zm0 1c .554 0 1 .45 1 1s-.446 1-1 1-1-.45-1-1 .446-1 1-1zm-5 4c1.1046 0 2 .8954 2 2s-.8954 2-2 2-2-.8954-2-2 .8954-2 2-2zm0 1c-.5523 0-1 .4477-1 1s .4477 1 1 1 1-.4477 1-1-.4477-1-1-1zm-3 8s-1 0-1 1v1h8v-1s0-1-1-1z" fill="#d3dae3"/></svg>

<svg xmlns="http://www.w3.org/2000/svg" width="16" height="16" version="1.1">
 <path style="fill:#d3dae3" d="M 10,0 C 8.938,0 8.0837,0.81922 8.0137,1.8691 L 5.7676,4.1094 C 5.5206,4.0494 5.268,4 5,4 3.338,4 2,5.34 2,7 2,7.89 2.39,8.6807 3,9.2207 V 13 H 7 V 9.2207 C 7.61,8.6807 8,7.89 8,7 8,6.73 7.9537,6.4805 7.8887,6.2305 L 10.135,3.9902 C 10.264,3.9802 10.389,3.9599 10.51,3.9199 L 11.438,4.8496 11.146,5.1406 C 11.052,5.2406 11,5.36 11,5.5 V 7.5 C 11,7.77 11.224,8 11.5,8 H 13.5 C 14.176,8 14.176,7 13.5,7 H 12 V 5.7109 L 13.707,4 H 15 V 5.5 C 15,6.174 16,6.1701 16,5.5 V 3.5 C 16,3.22 15.776,3 15.5,3 H 13.5 C 13.367,3 13.239,3.0506 13.146,3.1406 L 12.852,3.4395 11.926,2.5098 C 11.969,2.3498 12,2.18 12,2 12,0.89 11.108,0 10,0 Z M 10,1 C 10.554,1 11,1.45 11,2 11,2.55 10.554,3 10,3 9.446,3 9,2.55 9,2 9,1.45 9.446,1 10,1 Z M 5,5 C 6.1046,5 7,5.8954 7,7 7,8.1046 6.1046,9 5,9 3.8954,9 3,8.1046 3,7 3,5.8954 3.8954,5 5,5 Z M 5,6 C 4.4477,6 4,6.4477 4,7 4,7.5523 4.4477,8 5,8 5.5523,8 6,7.5523 6,7 6,6.4477 5.5523,6 5,6 Z M 2,14 C 2,14 1,14 1,15 V 16 H 9 V 15 C 9,15 9,14 8,14 Z"/>
</svg>
